; G-Code generated by Simplify3D(R) Version 4.1.2
; Jun 13, 2022 at 9:52:08 AM
; Settings Summary
;   processName,Process1
;   applyToModels,Nut Lock
;   profileName,LulzBot TAZ 5 (modified)
;   profileVersion,2021-08-27 09:31:58
;   baseProfile,
;   printMaterial,PETG
;   printQuality,Medium
;   printExtruders,
;   extruderName,Primary Extruder
;   extruderToolheadNumber,0
;   extruderDiameter,0.35
;   extruderAutoWidth,0
;   extruderWidth,0.4
;   extrusionMultiplier,1.01
;   extruderUseRetract,1
;   extruderRetractionDistance,0.9
;   extruderExtraRestartDistance,0
;   extruderRetractionZLift,0
;   extruderRetractionSpeed,2000
;   extruderUseCoasting,0
;   extruderCoastingDistance,0.2
;   extruderUseWipe,0
;   extruderWipeDistance,5
;   primaryExtruder,0
;   layerHeight,0.25
;   topSolidLayers,250
;   bottomSolidLayers,9
;   perimeterOutlines,5
;   printPerimetersInsideOut,1
;   startPointOption,2
;   startPointOriginX,0
;   startPointOriginY,0
;   sequentialIslands,0
;   spiralVaseMode,0
;   firstLayerHeightPercentage,90
;   firstLayerWidthPercentage,100
;   firstLayerUnderspeed,0.25
;   useRaft,1
;   raftExtruder,0
;   raftTopLayers,2
;   raftBaseLayers,1
;   raftOffset,3
;   raftSeparationDistance,0.25
;   raftTopInfill,100
;   aboveRaftSpeedMultiplier,0.3
;   useSkirt,0
;   skirtExtruder,0
;   skirtLayers,1
;   skirtOutlines,5
;   skirtOffset,2.05
;   usePrimePillar,0
;   primePillarExtruder,999
;   primePillarWidth,12
;   primePillarLocation,7
;   primePillarSpeedMultiplier,1
;   useOozeShield,0
;   oozeShieldExtruder,999
;   oozeShieldOffset,2
;   oozeShieldOutlines,1
;   oozeShieldSidewallShape,1
;   oozeShieldSidewallAngle,30
;   oozeShieldSpeedMultiplier,1
;   infillExtruder,0
;   internalInfillPattern,Full Honeycomb
;   externalInfillPattern,Rectilinear
;   infillPercentage,82
;   outlineOverlapPercentage,15
;   infillExtrusionWidthPercentage,203
;   minInfillLength,5
;   infillLayerInterval,1
;   internalInfillAngles,0,120,-120
;   overlapInternalInfillAngles,0
;   externalInfillAngles,45,-45
;   generateSupport,1
;   supportExtruder,0
;   supportInfillPercentage,20
;   supportExtraInflation,0.2
;   supportBaseLayers,1
;   denseSupportExtruder,0
;   denseSupportLayers,0
;   denseSupportInfillPercentage,70
;   supportLayerInterval,1
;   supportHorizontalPartOffset,0.4
;   supportUpperSeparationLayers,1
;   supportLowerSeparationLayers,1
;   supportType,0
;   supportGridSpacing,4
;   maxOverhangAngle,20
;   supportAngles,0
;   temperatureName,Primary Extruder,Heated Bed
;   temperatureNumber,0,1
;   temperatureSetpointCount,1,1
;   temperatureSetpointLayers,1,1
;   temperatureSetpointTemperatures,230,75
;   temperatureStabilizeAtStartup,1,1
;   temperatureHeatedBed,0,1
;   fanLayers,1,2
;   fanSpeeds,50,100
;   blipFanToFullPower,1
;   adjustSpeedForCooling,1
;   minSpeedLayerTime,15
;   minCoolingSpeedSlowdown,20
;   increaseFanForCooling,0
;   minFanLayerTime,45
;   maxCoolingFanSpeed,100
;   increaseFanForBridging,0
;   bridgingFanSpeed,100
;   use5D,1
;   relativeEdistances,0
;   allowEaxisZeroing,1
;   independentExtruderAxes,0
;   includeM10123,0
;   stickySupport,1
;   applyToolheadOffsets,0
;   gcodeXoffset,0
;   gcodeYoffset,0
;   gcodeZoffset,0
;   overrideMachineDefinition,1
;   machineTypeOverride,0
;   strokeXoverride,298
;   strokeYoverride,275
;   strokeZoverride,250
;   originOffsetXoverride,0
;   originOffsetYoverride,0
;   originOffsetZoverride,0
;   homeXdirOverride,-1
;   homeYdirOverride,-1
;   homeZdirOverride,-1
;   flipXoverride,1
;   flipYoverride,-1
;   flipZoverride,1
;   toolheadOffsets,0,0|0,0|0,0|0,0|0,0|0,0
;   overrideFirmwareConfiguration,1
;   firmwareTypeOverride,RepRap (Marlin/Repetier/Sprinter)
;   GPXconfigOverride,r2
;   baudRateOverride,115200
;   overridePrinterModels,1
;   printerModelsOverride,LulzBot_TAZ3.stl
;   startingGcode,G28 ; home all axes
;   layerChangeGcode,
;   retractionGcode,
;   toolChangeGcode,
;   endingGcode,M104 S0 ; turn off extruder,M140 S0 ; turn off bed,G28 X0 ; home X axis,M84 ; disable motors
;   exportFileFormat,gcode
;   celebration,0
;   celebrationSong,Random Song
;   postProcessing,
;   defaultSpeed,3000
;   outlineUnderspeed,0.5
;   solidInfillUnderspeed,0.8
;   supportUnderspeed,0.8
;   rapidXYspeed,7200
;   rapidZspeed,1000
;   minBridgingArea,50
;   bridgingExtraInflation,0
;   bridgingExtrusionMultiplier,1
;   bridgingSpeedMultiplier,1
;   useFixedBridgingAngle,0
;   fixedBridgingAngle,0
;   applyBridgingToPerimeters,0
;   filamentDiameters,3|3|3|3|3|3
;   filamentPricesPerKg,46|46|46|46|46|46
;   filamentDensities,1.25|1.25|1.25|1.25|1.25|1.25
;   useMinPrintHeight,0
;   minPrintHeight,0
;   useMaxPrintHeight,0
;   maxPrintHeight,0
;   useDiaphragm,0
;   diaphragmLayerInterval,20
;   robustSlicing,1
;   mergeAllIntoSolid,0
;   onlyRetractWhenCrossingOutline,1
;   retractBetweenLayers,1
;   useRetractionMinTravel,0
;   retractionMinTravel,3
;   retractWhileWiping,0
;   onlyWipeOutlines,1
;   avoidCrossingOutline,0
;   maxMovementDetourFactor,3
;   toolChangeRetractionDistance,12
;   toolChangeExtraRestartDistance,-0.5
;   toolChangeRetractionSpeed,600
;   externalThinWallType,0
;   internalThinWallType,2
;   thinWallAllowedOverlapPercentage,10
;   singleExtrusionMinLength,1
;   singleExtrusionMinPrintingWidthPercentage,50
;   singleExtrusionMaxPrintingWidthPercentage,200
;   singleExtrusionEndpointExtension,0.2
;   horizontalSizeCompensation,0
G90
M82
M106 S255
G4 P500
M106 S128
M140 S75
M190 S75
M104 S230 T0
M109 S230 T0
G28 ; home all axes
; process Process1
; layer 1, Z = 0.394
T0
G92 E0.0000
G1 E-0.9000 F2000
; feature raft
; tool H0.394 W0.700
G1 Z0.394 F1000
G1 X150.347 Y34.111 F7200
G1 E0.0000 F2000
G92 E0.0000
G1 X150.748 Y33.360 E0.0335 F188
G1 X152.110 Y32.060 E0.1077
G1 X152.516 Y31.608 E0.1316
G1 X152.926 Y31.102 E0.1573
G1 X153.490 Y30.306 E0.1957
G1 X153.802 Y29.801 E0.2191
G1 X155.039 Y27.406 E0.3252
G1 X157.457 Y26.867 E0.4228
G1 X158.859 Y27.944 E0.4924
G1 X167.118 Y27.844 E0.8177
G1 X168.510 Y26.720 E0.8881
G1 X170.974 Y27.239 E0.9873
G1 X171.859 Y28.957 E1.0634
G1 X172.548 Y30.075 E1.1152
G1 X173.337 Y31.105 E1.1662
G1 X173.963 Y31.787 E1.2027
G1 X175.337 Y33.039 E1.2759
G1 X175.756 Y33.785 E1.3096
G1 X176.304 Y36.613 E1.4231
G1 X176.132 Y37.582 E1.4618
G1 X174.246 Y40.709 E1.6056
G1 X173.763 Y41.182 E1.6322
G1 X170.759 Y42.907 E1.7687
G1 X169.831 Y43.066 E1.8058
G1 X167.802 Y42.692 E1.8870
G1 X166.337 Y42.503 E1.9452
G1 X164.857 Y42.392 E2.0036
G1 X163.370 Y42.360 E2.0622
G1 X161.404 Y42.439 E2.1397
G1 X159.947 Y42.589 E2.1974
G1 X158.467 Y42.820 E2.2564
G1 X156.445 Y43.251 E2.3378
G1 X155.505 Y43.113 E2.3752
G1 X152.470 Y41.455 E2.5114
G1 X151.975 Y40.989 E2.5382
G1 X150.045 Y37.913 E2.6812
G1 X149.855 Y36.951 E2.7198
G1 X150.347 Y34.111 E2.8333
G92 E0.0000
G1 E-0.9000 F2000
G1 X154.822 Y29.122 F7200
G1 E0.0000 F2000
G92 E0.0000
G1 X171.275 Y29.122 E0.6479 F188
G1 X171.341 Y29.250 E0.6536
G1 X172.058 Y30.413 E0.7074
G1 X172.600 Y31.122 E0.7426
G1 X153.641 Y31.122 E1.4893
G1 X153.400 Y31.461 E1.5056
G1 X152.969 Y31.994 E1.5327
G1 X152.537 Y32.475 E1.5581
G1 X151.859 Y33.122 E1.5950
G1 X174.544 Y33.122 E2.4884
G1 X174.865 Y33.414 E2.5055
G1 X175.190 Y33.993 E2.5316
G1 X175.409 Y35.122 E2.5769
G1 X150.776 Y35.122 E3.5470
G1 X150.460 Y36.944 E3.6199
G1 X150.495 Y37.122 E3.6270
G1 X175.609 Y37.122 E4.6161
G1 X175.565 Y37.369 E4.6260
G1 X174.509 Y39.122 E4.7066
G1 X151.506 Y39.122 E5.6125
G1 X152.439 Y40.608 E5.6816
G1 X152.823 Y40.970 E5.7024
G1 X153.101 Y41.122 E5.7149
G1 X172.673 Y41.122 E6.4856
G92 E0.0000
G1 E-0.9000 F2000
; layer 2, Z = 0.588
M106 S255
; tool H0.194 W0.350
G1 Z0.588 F1000
G1 X170.826 Y27.029 F7200
G1 E0.0000 F2000
G92 E0.0000
G1 X171.314 Y27.517 E0.0067 F2250
G1 X171.841 Y28.539 E0.0179
G1 X170.199 Y26.897 E0.0405
G1 X169.571 Y26.765 E0.0467
G1 X172.548 Y29.741 E0.0876
G1 X172.693 Y29.976 E0.0903
G1 X173.471 Y30.992 E0.1028
G1 X174.087 Y31.663 E0.1116
G1 X175.476 Y32.929 E0.1299
G1 X175.776 Y33.464 E0.1359
G1 X168.944 Y26.632 E0.2298
G1 X168.464 Y26.531 E0.2346
G1 X168.400 Y26.583 E0.2354
G1 X176.014 Y34.197 E0.3401
G1 X176.133 Y34.811 E0.3462
G1 X168.126 Y26.804 E0.4563
G1 X167.852 Y27.026 E0.4597
G1 X176.252 Y35.425 E0.5752
G1 X176.371 Y36.039 E0.5813
G1 X167.579 Y27.247 E0.7022
G1 X167.305 Y27.468 E0.7056
G1 X176.477 Y36.640 E0.8318
G1 X176.402 Y37.060 E0.8359
G1 X167.012 Y27.670 E0.9651
G1 X166.523 Y27.676 E0.9698
G1 X176.328 Y37.481 E1.1047
G1 X176.299 Y37.645 E1.1063
G1 X176.185 Y37.833 E1.1084
G1 X166.034 Y27.682 E1.2480
G1 X165.545 Y27.688 E1.2528
G1 X175.999 Y38.142 E1.3965
G1 X175.813 Y38.451 E1.4000
G1 X165.056 Y27.694 E1.5480
G1 X164.567 Y27.700 E1.5527
G1 X175.626 Y38.759 E1.7048
G1 X175.440 Y39.068 E1.7083
G1 X164.078 Y27.706 E1.8646
G1 X163.589 Y27.712 E1.8693
G1 X175.254 Y39.377 E2.0298
G1 X175.068 Y39.686 E2.0333
G1 X163.100 Y27.718 E2.1978
G1 X162.611 Y27.724 E2.2026
G1 X174.882 Y39.994 E2.3713
G1 X174.695 Y40.303 E2.3749
G1 X162.122 Y27.730 E2.5478
G1 X161.633 Y27.735 E2.5525
G1 X174.509 Y40.612 E2.7296
G1 X174.384 Y40.819 E2.7320
G1 X174.302 Y40.900 E2.7331
G1 X161.144 Y27.741 E2.9140
G1 X160.655 Y27.747 E2.9188
G1 X174.052 Y41.144 E3.1030
G1 X173.870 Y41.322 E3.1055
G1 X173.784 Y41.372 E3.1065
G1 X160.166 Y27.753 E3.2937
G1 X159.677 Y27.759 E3.2985
G1 X173.470 Y41.552 E3.4882
G1 X173.155 Y41.733 E3.4917
G1 X159.188 Y27.765 E3.6838
G1 X158.918 Y27.769 E3.6864
G1 X157.961 Y27.034 E3.6981
G1 X172.841 Y41.913 E3.9028
G1 X172.526 Y42.094 E3.9063
G1 X157.181 Y26.749 E4.1173
G1 X156.777 Y26.839 E4.1213
G1 X172.212 Y42.274 E4.3336
G1 X171.897 Y42.455 E4.3371
G1 X156.372 Y26.930 E4.5506
G1 X155.967 Y27.020 E4.5547
G1 X171.583 Y42.636 E4.7694
G1 X171.269 Y42.816 E4.7729
G1 X155.563 Y27.110 E4.9889
G1 X155.158 Y27.201 E4.9930
G1 X170.954 Y42.997 E5.2102
G1 X170.819 Y43.074 E5.2117
G1 X170.578 Y43.115 E5.2141
G1 X154.851 Y27.389 E5.4304
G1 X154.682 Y27.715 E5.4339
G1 X170.155 Y43.188 E5.6467
G1 X169.830 Y43.243 E5.6499
G1 X169.690 Y43.218 E5.6513
G1 X154.514 Y28.041 E5.8600
G1 X154.345 Y28.368 E5.8636
G1 X169.084 Y43.106 E6.0663
G1 X168.477 Y42.994 E6.0723
G1 X154.177 Y28.694 E6.2689
G1 X154.008 Y29.021 E6.2725
G1 X167.870 Y42.882 E6.4631
G1 X167.775 Y42.865 E6.4641
G1 X167.296 Y42.803 E6.4688
G1 X153.840 Y29.347 E6.6538
G1 X153.671 Y29.673 E6.6574
G1 X166.727 Y42.730 E6.8369
G1 X166.319 Y42.677 E6.8409
G1 X166.169 Y42.666 E6.8424
G1 X153.485 Y29.982 E7.0168
G1 X153.344 Y30.209 E7.0194
G1 X153.291 Y30.284 E7.0203
G1 X165.633 Y42.626 E7.1900
G1 X165.098 Y42.585 E7.1953
G1 X153.086 Y30.573 E7.3605
G1 X152.881 Y30.863 E7.3639
G1 X164.579 Y42.561 E7.5248
G1 X164.073 Y42.550 E7.5297
G1 X152.667 Y31.144 E7.6866
G1 X152.445 Y31.418 E7.6900
G1 X163.567 Y42.539 E7.8429
G1 X163.371 Y42.535 E7.8448
G1 X163.080 Y42.547 E7.8477
G1 X152.215 Y31.682 E7.9971
G1 X151.984 Y31.939 E8.0004
G1 X151.980 Y31.942 E8.0005
G1 X162.604 Y42.566 E8.1466
G1 X162.128 Y42.585 E8.1512
G1 X151.727 Y32.184 E8.2943
G1 X151.474 Y32.426 E8.2977
G1 X161.652 Y42.605 E8.4376
G1 X161.417 Y42.614 E8.4399
G1 X161.190 Y42.637 E8.4422
G1 X151.220 Y32.667 E8.5793
G1 X150.967 Y32.909 E8.5827
G1 X160.741 Y42.683 E8.7171
G1 X160.292 Y42.729 E8.7215
G1 X150.714 Y33.151 E8.8532
G1 X150.607 Y33.253 E8.8546
G1 X150.507 Y33.439 E8.8567
G1 X159.849 Y42.781 E8.9852
G1 X159.421 Y42.848 E8.9894
G1 X150.335 Y33.762 E9.1143
G1 X150.179 Y34.054 E9.1175
G1 X150.172 Y34.094 E9.1179
G1 X158.993 Y42.915 E9.2393
G1 X158.565 Y42.982 E9.2435
G1 X150.099 Y34.516 E9.3599
G1 X150.026 Y34.938 E9.3641
G1 X158.154 Y43.066 E9.4758
G1 X157.746 Y43.153 E9.4799
G1 X149.953 Y35.360 E9.5871
G1 X149.880 Y35.782 E9.5912
G1 X157.338 Y43.240 E9.6938
G1 X156.930 Y43.326 E9.6978
G1 X149.807 Y36.204 E9.7958
G1 X149.734 Y36.626 E9.7999
G1 X156.521 Y43.413 E9.8933
G1 X156.451 Y43.428 E9.8940
G1 X155.971 Y43.358 E9.8987
G1 X149.705 Y37.091 E9.9849
G1 X149.826 Y37.708 E9.9910
G1 X155.341 Y43.223 E10.0668
G1 X154.250 Y42.627 E10.0789
G1 X150.347 Y38.724 E10.1326
G1 X151.181 Y40.052 E10.1479
G1 X153.160 Y42.031 E10.1751
G92 E0.0000
G1 E-0.9000 F2000
; layer 3, Z = 0.783
G1 Z0.783 F1000
G1 X154.720 Y27.642 F7200
G1 E0.0000 F2000
G92 E0.0000
G1 X155.163 Y27.200 E0.0061 F2250
G1 X155.800 Y27.057 E0.0124
G1 X154.191 Y28.666 E0.0345
G1 X153.663 Y29.689 E0.0458
G1 X156.437 Y26.915 E0.0839
G1 X157.074 Y26.773 E0.0902
G1 X152.512 Y31.335 E0.1530
G1 X152.383 Y31.495 E0.1550
G1 X151.984 Y31.939 E0.1608
G1 X150.607 Y33.253 E0.1793
G1 X150.179 Y34.054 E0.1881
G1 X150.156 Y34.186 E0.1894
G1 X157.592 Y26.750 E0.2917
G1 X157.872 Y26.965 E0.2951
G1 X150.053 Y34.784 E0.4026
G1 X149.949 Y35.383 E0.4085
G1 X158.152 Y27.180 E0.5213
G1 X158.432 Y27.395 E0.5248
G1 X149.845 Y35.981 E0.6429
G1 X149.742 Y36.580 E0.6488
G1 X158.712 Y27.610 E0.7721
G1 X158.918 Y27.769 E0.7746
G1 X159.050 Y27.767 E0.7759
G1 X149.708 Y37.109 E0.9044
G1 X149.789 Y37.522 E0.9085
G1 X159.551 Y27.761 E1.0427
G1 X160.052 Y27.755 E1.0476
G1 X149.871 Y37.936 E1.1876
G1 X149.879 Y37.978 E1.1880
G1 X150.051 Y38.251 E1.1912
G1 X160.553 Y27.749 E1.3356
G1 X161.054 Y27.743 E1.3405
G1 X150.241 Y38.555 E1.4892
G1 X150.432 Y38.860 E1.4927
G1 X161.555 Y27.736 E1.6456
G1 X162.056 Y27.730 E1.6505
G1 X150.623 Y39.164 E1.8077
G1 X150.814 Y39.468 E1.8112
G1 X162.557 Y27.724 E1.9727
G1 X163.059 Y27.718 E1.9776
G1 X151.005 Y39.772 E2.1434
G1 X151.196 Y40.076 E2.1469
G1 X163.560 Y27.712 E2.3169
G1 X164.061 Y27.706 E2.3218
G1 X151.386 Y40.380 E2.4961
G1 X151.577 Y40.684 E2.4996
G1 X164.562 Y27.700 E2.6781
G1 X165.063 Y27.694 E2.6830
G1 X151.768 Y40.988 E2.8658
G1 X151.839 Y41.101 E2.8671
G1 X151.999 Y41.252 E2.8693
G1 X165.564 Y27.688 E3.0558
G1 X166.065 Y27.681 E3.0607
G1 X152.254 Y41.492 E3.2506
G1 X152.367 Y41.598 E3.2521
G1 X152.546 Y41.696 E3.2541
G1 X166.566 Y27.675 E3.4469
G1 X167.055 Y27.669 E3.4517
G1 X167.117 Y27.620 E3.4524
G1 X152.866 Y41.871 E3.6484
G1 X153.186 Y42.046 E3.6520
G1 X168.659 Y26.572 E3.8647
G1 X169.068 Y26.659 E3.8688
G1 X153.506 Y42.220 E4.0828
G1 X153.826 Y42.395 E4.0864
G1 X169.477 Y26.745 E4.3016
G1 X169.886 Y26.831 E4.3057
G1 X154.146 Y42.570 E4.5221
G1 X154.466 Y42.745 E4.5256
G1 X170.294 Y26.917 E4.7433
G1 X170.703 Y27.003 E4.7474
G1 X154.786 Y42.920 E4.9663
G1 X155.107 Y43.095 E4.9698
G1 X171.100 Y27.102 E5.1898
G1 X171.268 Y27.428 E5.1933
G1 X155.427 Y43.270 E5.4112
G1 X155.449 Y43.282 E5.4114
G1 X155.851 Y43.340 E5.4154
G1 X171.436 Y27.755 E5.6297
G1 X171.605 Y28.081 E5.6333
G1 X156.283 Y43.404 E5.8440
G1 X156.451 Y43.428 E5.8456
G1 X156.835 Y43.347 E5.8495
G1 X171.773 Y28.408 E6.0549
G1 X171.942 Y28.735 E6.0585
G1 X157.463 Y43.213 E6.2576
G1 X158.092 Y43.079 E6.2638
G1 X172.122 Y29.049 E6.4568
G1 X172.310 Y29.356 E6.4603
G1 X158.706 Y42.960 E6.6473
G1 X159.293 Y42.868 E6.6531
G1 X172.499 Y29.662 E6.8347
G1 X172.688 Y29.968 E6.8382
G1 X159.880 Y42.776 E7.0144
G1 X159.969 Y42.762 E7.0153
G1 X160.437 Y42.714 E7.0198
G1 X172.902 Y30.249 E7.1912
G1 X173.117 Y30.529 E7.1947
G1 X160.988 Y42.658 E7.3615
G1 X161.417 Y42.614 E7.3657
G1 X161.532 Y42.609 E7.3668
G1 X173.331 Y30.810 E7.5290
G1 X173.471 Y30.992 E7.5313
G1 X173.554 Y31.082 E7.5325
G1 X162.047 Y42.589 E7.6907
G1 X162.563 Y42.568 E7.6957
G1 X173.791 Y31.340 E7.8501
G1 X174.028 Y31.598 E7.8535
G1 X163.079 Y42.547 E8.0041
G1 X163.371 Y42.535 E8.0069
G1 X163.581 Y42.540 E8.0090
G1 X174.281 Y31.840 E8.1561
G1 X174.540 Y32.076 E8.1595
G1 X164.066 Y42.550 E8.3036
G1 X164.551 Y42.560 E8.3083
G1 X174.799 Y32.312 E8.4492
G1 X175.058 Y32.548 E8.4526
G1 X165.026 Y42.580 E8.5906
G1 X165.486 Y42.615 E8.5951
G1 X175.317 Y32.784 E8.7303
G1 X175.476 Y32.929 E8.7324
G1 X175.544 Y33.051 E8.7337
G1 X165.947 Y42.649 E8.8657
G1 X166.319 Y42.677 E8.8693
G1 X166.403 Y42.688 E8.8702
G1 X175.722 Y33.368 E8.9983
G1 X175.900 Y33.685 E9.0019
G1 X166.841 Y42.744 E9.1264
G1 X167.280 Y42.801 E9.1307
G1 X175.993 Y34.088 E9.2506
G1 X176.073 Y34.503 E9.2547
G1 X167.718 Y42.858 E9.3696
G1 X167.775 Y42.865 E9.3701
G1 X168.139 Y42.932 E9.3737
G1 X176.153 Y34.917 E9.4839
G1 X176.234 Y35.332 E9.4880
G1 X168.557 Y43.009 E9.5936
G1 X168.975 Y43.086 E9.5977
