; G-Code generated by Simplify3D(R) Version 4.1.2
; Jul 1, 2022 at 1:25:38 PM
; Settings Summary
;   processName,Process1
;   applyToModels,Periscope Stabalizer-v2
;   profileName,LulzBot TAZ 5 (modified)
;   profileVersion,2021-08-27 09:31:58
;   baseProfile,
;   printMaterial,PETG
;   printQuality,Medium
;   printExtruders,
;   extruderName,Primary Extruder
;   extruderToolheadNumber,0
;   extruderDiameter,0.35
;   extruderAutoWidth,0
;   extruderWidth,0.4
;   extrusionMultiplier,1.01
;   extruderUseRetract,1
;   extruderRetractionDistance,0.9
;   extruderExtraRestartDistance,0
;   extruderRetractionZLift,0
;   extruderRetractionSpeed,2000
;   extruderUseCoasting,0
;   extruderCoastingDistance,0.2
;   extruderUseWipe,0
;   extruderWipeDistance,5
;   primaryExtruder,0
;   layerHeight,0.25
;   topSolidLayers,250
;   bottomSolidLayers,9
;   perimeterOutlines,5
;   printPerimetersInsideOut,1
;   startPointOption,2
;   startPointOriginX,0
;   startPointOriginY,0
;   sequentialIslands,0
;   spiralVaseMode,0
;   firstLayerHeightPercentage,90
;   firstLayerWidthPercentage,100
;   firstLayerUnderspeed,0.25
;   useRaft,1
;   raftExtruder,0
;   raftTopLayers,2
;   raftBaseLayers,1
;   raftOffset,3
;   raftSeparationDistance,0.25
;   raftTopInfill,100
;   aboveRaftSpeedMultiplier,0.3
;   useSkirt,0
;   skirtExtruder,0
;   skirtLayers,1
;   skirtOutlines,5
;   skirtOffset,2.05
;   usePrimePillar,0
;   primePillarExtruder,999
;   primePillarWidth,12
;   primePillarLocation,7
;   primePillarSpeedMultiplier,1
;   useOozeShield,0
;   oozeShieldExtruder,999
;   oozeShieldOffset,2
;   oozeShieldOutlines,1
;   oozeShieldSidewallShape,1
;   oozeShieldSidewallAngle,30
;   oozeShieldSpeedMultiplier,1
;   infillExtruder,0
;   internalInfillPattern,Full Honeycomb
;   externalInfillPattern,Rectilinear
;   infillPercentage,82
;   outlineOverlapPercentage,15
;   infillExtrusionWidthPercentage,203
;   minInfillLength,5
;   infillLayerInterval,1
;   internalInfillAngles,0,120,-120
;   overlapInternalInfillAngles,0
;   externalInfillAngles,45,-45
;   generateSupport,1
;   supportExtruder,0
;   supportInfillPercentage,20
;   supportExtraInflation,0.2
;   supportBaseLayers,1
;   denseSupportExtruder,0
;   denseSupportLayers,0
;   denseSupportInfillPercentage,70
;   supportLayerInterval,1
;   supportHorizontalPartOffset,0.4
;   supportUpperSeparationLayers,1
;   supportLowerSeparationLayers,1
;   supportType,0
;   supportGridSpacing,4
;   maxOverhangAngle,20
;   supportAngles,0
;   temperatureName,Primary Extruder,Heated Bed
;   temperatureNumber,0,1
;   temperatureSetpointCount,1,1
;   temperatureSetpointLayers,1,1
;   temperatureSetpointTemperatures,230,75
;   temperatureStabilizeAtStartup,1,1
;   temperatureHeatedBed,0,1
;   fanLayers,1,2
;   fanSpeeds,50,100
;   blipFanToFullPower,1
;   adjustSpeedForCooling,1
;   minSpeedLayerTime,15
;   minCoolingSpeedSlowdown,20
;   increaseFanForCooling,0
;   minFanLayerTime,45
;   maxCoolingFanSpeed,100
;   increaseFanForBridging,0
;   bridgingFanSpeed,100
;   use5D,1
;   relativeEdistances,0
;   allowEaxisZeroing,1
;   independentExtruderAxes,0
;   includeM10123,0
;   stickySupport,1
;   applyToolheadOffsets,0
;   gcodeXoffset,0
;   gcodeYoffset,0
;   gcodeZoffset,0
;   overrideMachineDefinition,1
;   machineTypeOverride,0
;   strokeXoverride,298
;   strokeYoverride,275
;   strokeZoverride,250
;   originOffsetXoverride,0
;   originOffsetYoverride,0
;   originOffsetZoverride,0
;   homeXdirOverride,-1
;   homeYdirOverride,-1
;   homeZdirOverride,-1
;   flipXoverride,1
;   flipYoverride,-1
;   flipZoverride,1
;   toolheadOffsets,0,0|0,0|0,0|0,0|0,0|0,0
;   overrideFirmwareConfiguration,1
;   firmwareTypeOverride,RepRap (Marlin/Repetier/Sprinter)
;   GPXconfigOverride,r2
;   baudRateOverride,115200
;   overridePrinterModels,1
;   printerModelsOverride,LulzBot_TAZ3.stl
;   startingGcode,G28 ; home all axes
;   layerChangeGcode,
;   retractionGcode,
;   toolChangeGcode,
;   endingGcode,M104 S0 ; turn off extruder,M140 S0 ; turn off bed,G28 X0 ; home X axis,M84 ; disable motors
;   exportFileFormat,gcode
;   celebration,0
;   celebrationSong,Random Song
;   postProcessing,
;   defaultSpeed,3000
;   outlineUnderspeed,0.5
;   solidInfillUnderspeed,0.8
;   supportUnderspeed,0.8
;   rapidXYspeed,7200
;   rapidZspeed,1000
;   minBridgingArea,50
;   bridgingExtraInflation,0
;   bridgingExtrusionMultiplier,1
;   bridgingSpeedMultiplier,1
;   useFixedBridgingAngle,0
;   fixedBridgingAngle,0
;   applyBridgingToPerimeters,0
;   filamentDiameters,3|3|3|3|3|3
;   filamentPricesPerKg,46|46|46|46|46|46
;   filamentDensities,1.25|1.25|1.25|1.25|1.25|1.25
;   useMinPrintHeight,0
;   minPrintHeight,0
;   useMaxPrintHeight,0
;   maxPrintHeight,0
;   useDiaphragm,0
;   diaphragmLayerInterval,20
;   robustSlicing,1
;   mergeAllIntoSolid,0
;   onlyRetractWhenCrossingOutline,1
;   retractBetweenLayers,1
;   useRetractionMinTravel,0
;   retractionMinTravel,3
;   retractWhileWiping,0
;   onlyWipeOutlines,1
;   avoidCrossingOutline,0
;   maxMovementDetourFactor,3
;   toolChangeRetractionDistance,12
;   toolChangeExtraRestartDistance,-0.5
;   toolChangeRetractionSpeed,600
;   externalThinWallType,0
;   internalThinWallType,2
;   thinWallAllowedOverlapPercentage,10
;   singleExtrusionMinLength,1
;   singleExtrusionMinPrintingWidthPercentage,50
;   singleExtrusionMaxPrintingWidthPercentage,200
;   singleExtrusionEndpointExtension,0.2
;   horizontalSizeCompensation,0
G90
M82
M106 S255
G4 P500
M106 S128
M140 S75
M190 S75
M104 S230 T0
M109 S230 T0
G28 ; home all axes
; process Process1
; layer 1, Z = 0.394
T0
G92 E0.0000
G1 E-0.9000 F2000
; feature raft
; tool H0.394 W0.700
G1 Z0.394 F1000
G1 X109.393 Y19.565 F7200
G1 E0.0000 F2000
G92 E0.0000
G1 X109.409 Y19.478 E0.0034 F188
G1 X109.632 Y18.442 E0.0452
G1 X109.653 Y18.358 E0.0486
G1 X109.943 Y17.338 E0.0904
G1 X109.969 Y17.255 E0.0938
G1 X110.325 Y16.257 E0.1355
G1 X110.357 Y16.176 E0.1390
G1 X110.778 Y15.203 E0.1807
G1 X110.815 Y15.125 E0.1841
G1 X111.298 Y14.181 E0.2259
G1 X111.340 Y14.106 E0.2293
G1 X111.884 Y13.196 E0.2710
G1 X111.931 Y13.123 E0.2744
G1 X112.533 Y12.251 E0.3162
G1 X112.585 Y12.181 E0.3196
G1 X113.243 Y11.350 E0.3614
G1 X113.299 Y11.284 E0.3648
G1 X114.010 Y10.498 E0.4065
G1 X114.071 Y10.435 E0.4099
G1 X114.824 Y9.705 E0.4513
G1 X114.888 Y9.647 E0.4547
G1 X115.703 Y8.953 E0.4968
G1 X115.771 Y8.899 E0.5002
G1 X116.622 Y8.266 E0.5420
G1 X116.694 Y8.217 E0.5454
G1 X117.584 Y7.641 E0.5872
G1 X117.658 Y7.597 E0.5906
G1 X118.584 Y7.081 E0.6323
G1 X118.661 Y7.041 E0.6357
G1 X119.620 Y6.587 E0.6775
G1 X119.699 Y6.553 E0.6809
G1 X120.684 Y6.162 E0.7227
G1 X120.766 Y6.133 E0.7261
G1 X121.775 Y5.808 E0.7678
G1 X121.858 Y5.784 E0.7712
G1 X122.886 Y5.525 E0.8130
G1 X122.971 Y5.507 E0.8164
G1 X124.014 Y5.316 E0.8581
G1 X124.100 Y5.303 E0.8616
G1 X125.153 Y5.181 E0.9033
G1 X125.239 Y5.174 E0.9067
G1 X126.287 Y5.122 E0.9480
G1 X126.374 Y5.120 E0.9515
G1 X127.444 Y5.136 E0.9936
G1 X127.531 Y5.140 E0.9971
G1 X128.588 Y5.226 E1.0388
G1 X128.674 Y5.236 E1.0422
G1 X129.722 Y5.391 E1.0840
G1 X129.808 Y5.406 E1.0874
G1 X130.844 Y5.629 E1.1291
G1 X130.928 Y5.650 E1.1325
G1 X131.948 Y5.940 E1.1743
G1 X132.031 Y5.967 E1.1777
G1 X133.029 Y6.323 E1.2194
G1 X133.109 Y6.355 E1.2229
G1 X134.072 Y6.771 E1.2642
G1 X134.150 Y6.808 E1.2676
G1 X135.094 Y7.291 E1.3093
G1 X135.170 Y7.333 E1.3127
G1 X136.080 Y7.876 E1.3545
G1 X136.153 Y7.923 E1.3579
G1 X137.025 Y8.525 E1.3996
G1 X137.095 Y8.577 E1.4031
G1 X137.926 Y9.235 E1.4448
G1 X137.993 Y9.291 E1.4482
G1 X138.779 Y10.001 E1.4900
G1 X138.841 Y10.062 E1.4934
G1 X139.580 Y10.822 E1.5351
G1 X139.639 Y10.887 E1.5386
G1 X140.332 Y11.702 E1.5807
G1 X140.386 Y11.770 E1.5841
G1 X141.012 Y12.613 E1.6255
G1 X141.061 Y12.684 E1.6289
G1 X141.637 Y13.573 E1.6706
G1 X141.682 Y13.648 E1.6740
G1 X142.198 Y14.574 E1.7158
G1 X142.237 Y14.651 E1.7192
G1 X142.692 Y15.609 E1.7610
G1 X142.727 Y15.689 E1.7644
G1 X143.121 Y16.684 E1.8065
G1 X143.151 Y16.765 E1.8100
G1 X143.473 Y17.764 E1.8513
G1 X143.497 Y17.847 E1.8547
G1 X143.756 Y18.875 E1.8965
G1 X143.774 Y18.961 E1.8999
G1 X143.967 Y20.013 E1.9420
G1 X143.979 Y20.099 E1.9455
G1 X144.101 Y21.142 E1.9868
G1 X144.108 Y21.228 E1.9902
G1 X144.161 Y22.286 E2.0319
G1 X144.163 Y22.374 E2.0354
G1 X144.146 Y23.444 E2.0775
G1 X144.142 Y23.530 E2.0809
G1 X144.057 Y24.576 E2.1223
G1 X144.048 Y24.663 E2.1257
G1 X143.893 Y25.711 E2.1674
G1 X143.878 Y25.797 E2.1709
G1 X143.653 Y26.844 E2.2130
G1 X143.632 Y26.927 E2.2164
G1 X143.345 Y27.937 E2.2578
G1 X143.318 Y28.019 E2.2612
G1 X142.963 Y29.018 E2.3029
G1 X142.931 Y29.098 E2.3063
G1 X142.511 Y30.072 E2.3481
G1 X142.473 Y30.150 E2.3515
G1 X141.990 Y31.094 E2.3932
G1 X141.948 Y31.170 E2.3967
G1 X141.404 Y32.079 E2.4384
G1 X141.358 Y32.152 E2.4418
G1 X140.952 Y32.740 E2.4699
G1 X138.019 Y40.200 E2.7856
G1 X137.988 Y40.273 E2.7887
G1 X137.718 Y40.856 E2.8140
G1 X137.644 Y40.994 E2.8202
G1 X137.286 Y41.574 E2.8471
G1 X137.197 Y41.702 E2.8532
G1 X136.773 Y42.237 E2.8801
G1 X136.668 Y42.354 E2.8863
G1 X136.185 Y42.835 E2.9131
G1 X136.067 Y42.938 E2.9193
G1 X135.530 Y43.359 E2.9461
G1 X135.402 Y43.448 E2.9523
G1 X134.819 Y43.802 E2.9792
G1 X134.680 Y43.875 E2.9853
G1 X134.060 Y44.158 E3.0122
G1 X133.914 Y44.214 E3.0184
G1 X133.264 Y44.422 E3.0452
G1 X133.112 Y44.461 E3.0514
G1 X132.443 Y44.591 E3.0782
G1 X132.288 Y44.611 E3.0844
G1 X131.608 Y44.661 E3.1113
G1 X131.451 Y44.663 E3.1174
G1 X130.770 Y44.632 E3.1443
G1 X130.614 Y44.616 E3.1505
G1 X129.941 Y44.505 E3.1773
G1 X129.788 Y44.471 E3.1835
G1 X129.133 Y44.281 E3.2103
G1 X128.986 Y44.229 E3.2165
G1 X128.357 Y43.963 E3.2434
G1 X128.217 Y43.894 E3.2495
G1 X127.659 Y43.576 E3.2748
G1 X127.591 Y43.535 E3.2779
G1 X120.927 Y39.195 E3.5912
G1 X120.264 Y38.959 E3.6189
G1 X120.183 Y38.927 E3.6223
G1 X119.210 Y38.507 E3.6640
G1 X119.132 Y38.470 E3.6675
G1 X118.188 Y37.986 E3.7092
G1 X118.112 Y37.944 E3.7126
G1 X117.202 Y37.401 E3.7544
G1 X117.129 Y37.354 E3.7578
G1 X116.257 Y36.751 E3.7995
G1 X116.187 Y36.700 E3.8030
G1 X115.356 Y36.042 E3.8447
G1 X115.290 Y35.986 E3.8481
G1 X114.511 Y35.282 E3.8894
G1 X114.450 Y35.222 E3.8928
G1 X113.704 Y34.454 E3.9350
G1 X113.645 Y34.390 E3.9384
G1 X112.958 Y33.582 E3.9802
G1 X112.904 Y33.514 E3.9836
G1 X112.272 Y32.663 E4.0254
G1 X112.222 Y32.592 E4.0288
G1 X111.647 Y31.702 E4.0705
G1 X111.602 Y31.627 E4.0739
G1 X111.086 Y30.701 E4.1157
G1 X111.046 Y30.624 E4.1191
G1 X110.592 Y29.667 E4.1608
G1 X110.557 Y29.587 E4.1643
G1 X110.171 Y28.611 E4.2056
G1 X110.141 Y28.530 E4.2090
G1 X109.812 Y27.512 E4.2511
G1 X109.788 Y27.428 E4.2546
G1 X109.529 Y26.400 E4.2963
G1 X109.511 Y26.315 E4.2998
G1 X109.320 Y25.272 E4.3415
G1 X109.307 Y25.186 E4.3449
G1 X109.185 Y24.134 E4.3867
G1 X109.178 Y24.047 E4.3901
G1 X109.125 Y22.988 E4.4318
G1 X109.123 Y22.901 E4.4352
G1 X109.139 Y21.842 E4.4770
G1 X109.144 Y21.755 E4.4804
G1 X109.228 Y20.709 E4.5217
G1 X109.238 Y20.623 E4.5251
G1 X109.393 Y19.565 E4.5673
G92 E0.0000
G1 E-0.9000 F2000
G1 X118.513 Y17.821 F7200
G1 E0.0000 F2000
G92 E0.0000
G1 X121.572 Y17.821 E0.1205 F188
G1 X121.572 Y14.681 E0.2441
G1 X120.695 Y15.344 E0.2874
G1 X120.179 Y15.797 E0.3145
G1 X119.693 Y16.291 E0.3418
G1 X119.251 Y16.811 E0.3686
G1 X118.513 Y17.821 E0.4179
G92 E0.0000
G1 E-0.9000 F2000
G1 X123.712 Y19.961 F7200
G1 E0.0000 F2000
G92 E0.0000
G1 X123.712 Y25.821 E0.2308 F188
G1 X129.572 Y25.821 E0.4616
G1 X129.572 Y19.961 E0.6924
G1 X123.712 Y19.961 E0.9231
G92 E0.0000
G1 E-0.9000 F2000
G1 X131.712 Y27.961 F7200
G1 E0.0000 F2000
G92 E0.0000
G1 X131.712 Y30.600 E0.1039 F188
G1 X132.592 Y29.935 E0.1474
G1 X133.108 Y29.481 E0.1744
G1 X133.590 Y28.991 E0.2015
G1 X134.466 Y27.961 E0.2548
G1 X131.712 Y27.961 E0.3632
G92 E0.0000
G1 E-0.9000 F2000
G1 X130.167 Y24.891 F7200
G1 E0.0000 F2000
G92 E0.0000
G1 X143.413 Y24.891 E0.5217 F188
G1 X143.457 Y24.585 E0.5338
G1 X143.465 Y24.519 E0.5364
G1 X143.548 Y23.492 E0.5770
G1 X143.551 Y23.425 E0.5797
G1 X143.560 Y22.891 E0.6007
G1 X130.167 Y22.891 E1.1281
G92 E0.0000
G1 E-0.9000 F2000
G1 X122.167 Y16.891 F7200
G1 E0.0000 F2000
G92 E0.0000
G1 X142.563 Y16.891 E0.8033 F188
G1 X142.178 Y15.917 E0.8445
G1 X142.150 Y15.855 E0.8472
G1 X141.704 Y14.915 E0.8882
G1 X141.692 Y14.891 E0.8892
G1 X122.167 Y14.891 E1.6582
G92 E0.0000
G1 E-0.9000 F2000
G1 X120.461 Y6.891 F7200
G1 E0.0000 F2000
G92 E0.0000
G1 X132.846 Y6.891 E0.4878 F188
G1 X132.882 Y6.905 E0.4893
G1 X133.827 Y7.313 E0.5298
G1 X133.888 Y7.342 E0.5325
G1 X134.814 Y7.816 E0.5735
G1 X134.873 Y7.848 E0.5761
G1 X135.767 Y8.382 E0.6171
G1 X135.823 Y8.418 E0.6197
G1 X136.507 Y8.891 E0.6525
G1 X116.780 Y8.891 E1.4294
G1 X116.134 Y9.370 E1.4611
G1 X116.081 Y9.412 E1.4637
G1 X115.280 Y10.094 E1.5051
G1 X115.231 Y10.138 E1.5078
G1 X114.492 Y10.856 E1.5483
G1 X114.458 Y10.891 E1.5502
G1 X138.817 Y10.891 E2.5096
G1 X139.146 Y11.230 E2.5282
G1 X139.192 Y11.280 E2.5308
G1 X139.872 Y12.081 E2.5722
G1 X139.914 Y12.133 E2.5749
G1 X140.477 Y12.891 E2.6121
G1 X112.815 Y12.891 E3.7015
G1 X112.426 Y13.453 E3.7284
G1 X112.390 Y13.510 E3.7311
G1 X111.856 Y14.402 E3.7720
G1 X111.823 Y14.461 E3.7747
G1 X111.603 Y14.891 E3.7937
G1 X120.309 Y14.891 E4.1365
G1 X119.770 Y15.364 E4.1648
G1 X119.254 Y15.889 E4.1938
G1 X118.784 Y16.443 E4.2224
G1 X118.456 Y16.891 E4.2443
G1 X110.731 Y16.891 E4.5485
G1 X110.533 Y17.446 E4.5717
G1 X110.512 Y17.510 E4.5744
G1 X110.227 Y18.511 E4.6154
G1 X110.211 Y18.576 E4.6180
G1 X110.144 Y18.891 E4.6307
G1 X143.146 Y18.891 E5.9304
G1 X143.176 Y19.011 E5.9353
G1 X143.191 Y19.077 E5.9380
G1 X143.380 Y20.111 E5.9793
G1 X143.390 Y20.177 E5.9820
G1 X143.472 Y20.891 E6.0103
G1 X130.167 Y20.891 E6.5343
G1 X130.167 Y19.366 E6.5943
G1 X123.117 Y19.366 E6.8720
G1 X123.117 Y20.891 E6.9320
G1 X109.810 Y20.891 E7.4561
G1 X109.737 Y21.793 E7.4917
G1 X109.734 Y21.861 E7.4944
G1 X109.718 Y22.891 E7.5350
G1 X123.117 Y22.891 E8.0627
G1 X123.117 Y24.891 E8.1414
G1 X109.872 Y24.891 E8.6630
G1 X109.897 Y25.108 E8.6716
G1 X109.907 Y25.175 E8.6743
G1 X110.095 Y26.198 E8.7153
G1 X110.109 Y26.264 E8.7179
G1 X110.267 Y26.891 E8.7434
G1 X143.024 Y26.891 E10.0335
G1 X142.775 Y27.765 E10.0693
G1 X142.755 Y27.829 E10.0719
G1 X142.405 Y28.809 E10.1129
G1 X142.381 Y28.871 E10.1155
G1 X142.373 Y28.891 E10.1164
G1 X134.457 Y28.891 E10.4281
G1 X135.752 Y27.366 E10.5069
G1 X131.117 Y27.366 E10.6894
G1 X131.117 Y28.891 E10.7495
G1 X110.921 Y28.891 E11.5449
G1 X111.107 Y29.359 E11.5647
G1 X111.134 Y29.420 E11.5673
G1 X111.580 Y30.361 E11.6083
G1 X111.610 Y30.420 E11.6110
G1 X111.873 Y30.891 E11.6322
G1 X131.117 Y30.891 E12.3901
G1 X131.117 Y31.795 E12.4257
G1 X132.314 Y30.891 E12.4848
G1 X141.422 Y30.891 E12.8435
G1 X140.899 Y31.766 E12.8836
G1 X140.862 Y31.822 E12.8863
G1 X140.424 Y32.458 E12.9167
G1 X140.254 Y32.891 E12.9350
G1 X113.182 Y32.891 E14.0012
G1 X113.376 Y33.151 E14.0140
G1 X113.418 Y33.204 E14.0166
G1 X114.092 Y33.997 E14.0576
G1 X114.138 Y34.047 E14.0603
G1 X114.870 Y34.801 E14.1017
G1 X114.918 Y34.847 E14.1043
G1 X114.966 Y34.891 E14.1068
G1 X139.467 Y34.891 E15.0718
G1 X138.681 Y36.891 E15.1564
G1 X117.509 Y36.891 E15.9902
G1 X117.516 Y36.895 E15.9905
G1 X118.409 Y37.429 E16.0315
G1 X118.468 Y37.461 E16.0341
G1 X119.394 Y37.936 E16.0751
G1 X119.455 Y37.964 E16.0778
G1 X120.410 Y38.377 E16.1187
G1 X120.472 Y38.402 E16.1214
G1 X121.193 Y38.658 E16.1515
G1 X121.549 Y38.891 E16.1683
G1 X137.895 Y38.891 E16.8120
G1 X137.468 Y39.975 E16.8579
G1 X137.445 Y40.030 E16.8602
G1 X137.185 Y40.590 E16.8845
G1 X137.128 Y40.697 E16.8893
G1 X137.009 Y40.891 E16.8983
G1 X124.621 Y40.891 E17.3861
G1 X127.693 Y42.891 E17.5305
G1 X135.161 Y42.891 E17.8246
G92 E0.0000
G1 E-0.9000 F2000
; layer 2, Z = 0.588
M106 S255
; tool H0.194 W0.350
G1 Z0.588 F1000
G1 X131.951 Y30.200 F7200
G1 E0.0000 F2000
G92 E0.0000
G1 X139.264 Y37.512 E0.1006 F2250
G1 X139.403 Y37.157 E0.1043
G1 X132.233 Y29.987 E0.2029
G1 X132.481 Y29.799 E0.2059
G1 X132.513 Y29.771 E0.2063
G1 X139.543 Y36.802 E0.3030
G1 X139.683 Y36.447 E0.3067
G1 X132.776 Y29.540 E0.4017
G1 X132.988 Y29.354 E0.4044
G1 X133.036 Y29.305 E0.4051
G1 X139.823 Y36.091 E0.4984
G1 X139.962 Y35.736 E0.5021
