; G-Code generated by Simplify3D(R) Version 4.1.2
; Jul 1, 2022 at 1:06:21 PM
; Settings Summary
;   processName,Process1
;   applyToModels,Periscope Stabalizer-v2
;   profileName,LulzBot TAZ 5 (modified)
;   profileVersion,2021-08-27 09:31:58
;   baseProfile,
;   printMaterial,PETG
;   printQuality,Medium
;   printExtruders,
;   extruderName,Primary Extruder
;   extruderToolheadNumber,0
;   extruderDiameter,0.35
;   extruderAutoWidth,0
;   extruderWidth,0.4
;   extrusionMultiplier,1.01
;   extruderUseRetract,1
;   extruderRetractionDistance,0.9
;   extruderExtraRestartDistance,0
;   extruderRetractionZLift,0
;   extruderRetractionSpeed,2000
;   extruderUseCoasting,0
;   extruderCoastingDistance,0.2
;   extruderUseWipe,0
;   extruderWipeDistance,5
;   primaryExtruder,0
;   layerHeight,0.25
;   topSolidLayers,250
;   bottomSolidLayers,9
;   perimeterOutlines,5
;   printPerimetersInsideOut,1
;   startPointOption,2
;   startPointOriginX,0
;   startPointOriginY,0
;   sequentialIslands,0
;   spiralVaseMode,0
;   firstLayerHeightPercentage,90
;   firstLayerWidthPercentage,100
;   firstLayerUnderspeed,0.25
;   useRaft,1
;   raftExtruder,0
;   raftTopLayers,2
;   raftBaseLayers,1
;   raftOffset,3.4
;   raftSeparationDistance,0.28
;   raftTopInfill,100
;   aboveRaftSpeedMultiplier,0.3
;   useSkirt,0
;   skirtExtruder,0
;   skirtLayers,1
;   skirtOutlines,5
;   skirtOffset,2.05
;   usePrimePillar,0
;   primePillarExtruder,999
;   primePillarWidth,12
;   primePillarLocation,7
;   primePillarSpeedMultiplier,1
;   useOozeShield,0
;   oozeShieldExtruder,999
;   oozeShieldOffset,2
;   oozeShieldOutlines,1
;   oozeShieldSidewallShape,1
;   oozeShieldSidewallAngle,30
;   oozeShieldSpeedMultiplier,1
;   infillExtruder,0
;   internalInfillPattern,Full Honeycomb
;   externalInfillPattern,Rectilinear
;   infillPercentage,82
;   outlineOverlapPercentage,15
;   infillExtrusionWidthPercentage,203
;   minInfillLength,5
;   infillLayerInterval,1
;   internalInfillAngles,0,120,-120
;   overlapInternalInfillAngles,0
;   externalInfillAngles,45,-45
;   generateSupport,1
;   supportExtruder,0
;   supportInfillPercentage,20
;   supportExtraInflation,0.2
;   supportBaseLayers,1
;   denseSupportExtruder,0
;   denseSupportLayers,0
;   denseSupportInfillPercentage,70
;   supportLayerInterval,1
;   supportHorizontalPartOffset,0.4
;   supportUpperSeparationLayers,1
;   supportLowerSeparationLayers,1
;   supportType,0
;   supportGridSpacing,4
;   maxOverhangAngle,20
;   supportAngles,0
;   temperatureName,Primary Extruder,Heated Bed
;   temperatureNumber,0,1
;   temperatureSetpointCount,1,1
;   temperatureSetpointLayers,1,1
;   temperatureSetpointTemperatures,230,75
;   temperatureStabilizeAtStartup,1,1
;   temperatureHeatedBed,0,1
;   fanLayers,1,2
;   fanSpeeds,50,100
;   blipFanToFullPower,1
;   adjustSpeedForCooling,1
;   minSpeedLayerTime,15
;   minCoolingSpeedSlowdown,20
;   increaseFanForCooling,0
;   minFanLayerTime,45
;   maxCoolingFanSpeed,100
;   increaseFanForBridging,0
;   bridgingFanSpeed,100
;   use5D,1
;   relativeEdistances,0
;   allowEaxisZeroing,1
;   independentExtruderAxes,0
;   includeM10123,0
;   stickySupport,1
;   applyToolheadOffsets,0
;   gcodeXoffset,0
;   gcodeYoffset,0
;   gcodeZoffset,0
;   overrideMachineDefinition,1
;   machineTypeOverride,0
;   strokeXoverride,298
;   strokeYoverride,275
;   strokeZoverride,250
;   originOffsetXoverride,0
;   originOffsetYoverride,0
;   originOffsetZoverride,0
;   homeXdirOverride,-1
;   homeYdirOverride,-1
;   homeZdirOverride,-1
;   flipXoverride,1
;   flipYoverride,-1
;   flipZoverride,1
;   toolheadOffsets,0,0|0,0|0,0|0,0|0,0|0,0
;   overrideFirmwareConfiguration,1
;   firmwareTypeOverride,RepRap (Marlin/Repetier/Sprinter)
;   GPXconfigOverride,r2
;   baudRateOverride,115200
;   overridePrinterModels,1
;   printerModelsOverride,LulzBot_TAZ3.stl
;   startingGcode,G28 ; home all axes
;   layerChangeGcode,
;   retractionGcode,
;   toolChangeGcode,
;   endingGcode,M104 S0 ; turn off extruder,M140 S0 ; turn off bed,G28 X0 ; home X axis,M84 ; disable motors
;   exportFileFormat,gcode
;   celebration,0
;   celebrationSong,Random Song
;   postProcessing,
;   defaultSpeed,3000
;   outlineUnderspeed,0.5
;   solidInfillUnderspeed,0.8
;   supportUnderspeed,0.8
;   rapidXYspeed,7200
;   rapidZspeed,1000
;   minBridgingArea,50
;   bridgingExtraInflation,0
;   bridgingExtrusionMultiplier,1
;   bridgingSpeedMultiplier,1
;   useFixedBridgingAngle,0
;   fixedBridgingAngle,0
;   applyBridgingToPerimeters,0
;   filamentDiameters,3|3|3|3|3|3
;   filamentPricesPerKg,46|46|46|46|46|46
;   filamentDensities,1.25|1.25|1.25|1.25|1.25|1.25
;   useMinPrintHeight,0
;   minPrintHeight,0
;   useMaxPrintHeight,0
;   maxPrintHeight,0
;   useDiaphragm,0
;   diaphragmLayerInterval,20
;   robustSlicing,1
;   mergeAllIntoSolid,0
;   onlyRetractWhenCrossingOutline,1
;   retractBetweenLayers,1
;   useRetractionMinTravel,0
;   retractionMinTravel,3
;   retractWhileWiping,0
;   onlyWipeOutlines,1
;   avoidCrossingOutline,0
;   maxMovementDetourFactor,3
;   toolChangeRetractionDistance,12
;   toolChangeExtraRestartDistance,-0.5
;   toolChangeRetractionSpeed,600
;   externalThinWallType,0
;   internalThinWallType,2
;   thinWallAllowedOverlapPercentage,10
;   singleExtrusionMinLength,1
;   singleExtrusionMinPrintingWidthPercentage,50
;   singleExtrusionMaxPrintingWidthPercentage,200
;   singleExtrusionEndpointExtension,0.2
;   horizontalSizeCompensation,0
G90
M82
M106 S255
G4 P500
M106 S128
M140 S75
M190 S75
M104 S230 T0
M109 S230 T0
G28 ; home all axes
; process Process1
; layer 1, Z = 0.394
T0
G92 E0.0000
G1 E-0.9000 F2000
; feature raft
; tool H0.394 W0.700
G1 Z0.394 F1000
G1 X154.646 Y24.158 F7200
G1 E0.0000 F2000
G92 E0.0000
G1 X154.664 Y24.059 E0.0040 F188
G1 X154.890 Y23.009 E0.0463
G1 X154.914 Y22.912 E0.0502
G1 X155.207 Y21.880 E0.0925
G1 X155.238 Y21.785 E0.0964
G1 X155.598 Y20.774 E0.1386
G1 X155.635 Y20.681 E0.1426
G1 X156.061 Y19.696 E0.1848
G1 X156.103 Y19.606 E0.1888
G1 X156.593 Y18.651 E0.2310
G1 X156.641 Y18.564 E0.2350
G1 X157.192 Y17.643 E0.2772
G1 X157.246 Y17.559 E0.2812
G1 X157.856 Y16.676 E0.3234
G1 X157.915 Y16.596 E0.3273
G1 X158.582 Y15.754 E0.3696
G1 X158.646 Y15.678 E0.3735
G1 X159.366 Y14.882 E0.4158
G1 X159.435 Y14.811 E0.4197
G1 X160.198 Y14.071 E0.4616
G1 X160.271 Y14.004 E0.4655
G1 X161.097 Y13.302 E0.5082
G1 X161.175 Y13.240 E0.5121
G1 X162.037 Y12.599 E0.5544
G1 X162.119 Y12.542 E0.5583
G1 X163.020 Y11.960 E0.6006
G1 X163.106 Y11.908 E0.6045
G1 X164.043 Y11.386 E0.6468
G1 X164.132 Y11.341 E0.6507
G1 X165.102 Y10.881 E0.6930
G1 X165.194 Y10.841 E0.6969
G1 X166.191 Y10.446 E0.7392
G1 X166.285 Y10.412 E0.7431
G1 X167.306 Y10.083 E0.7854
G1 X167.402 Y10.055 E0.7893
G1 X168.443 Y9.794 E0.8316
G1 X168.541 Y9.773 E0.8355
G1 X169.596 Y9.580 E0.8777
G1 X169.695 Y9.565 E0.8817
G1 X170.761 Y9.441 E0.9239
G1 X170.860 Y9.433 E0.9279
G1 X171.921 Y9.380 E0.9697
G1 X172.021 Y9.378 E0.9736
G1 X173.104 Y9.394 E1.0163
G1 X173.205 Y9.399 E1.0203
G1 X174.274 Y9.486 E1.0625
G1 X174.374 Y9.497 E1.0665
G1 X175.435 Y9.654 E1.1087
G1 X175.534 Y9.672 E1.1127
G1 X176.583 Y9.897 E1.1549
G1 X176.679 Y9.922 E1.1589
G1 X177.712 Y10.215 E1.2011
G1 X177.807 Y10.246 E1.2051
G1 X178.817 Y10.606 E1.2473
G1 X178.910 Y10.643 E1.2512
G1 X179.885 Y11.064 E1.2931
G1 X179.975 Y11.107 E1.2970
G1 X180.930 Y11.596 E1.3392
G1 X181.017 Y11.644 E1.3432
G1 X181.938 Y12.194 E1.3854
G1 X182.022 Y12.248 E1.3893
G1 X182.906 Y12.858 E1.4316
G1 X182.986 Y12.917 E1.4355
G1 X183.827 Y13.583 E1.4778
G1 X183.904 Y13.647 E1.4817
G1 X184.700 Y14.367 E1.5240
G1 X184.772 Y14.436 E1.5279
G1 X185.519 Y15.206 E1.5702
G1 X185.587 Y15.281 E1.5742
G1 X186.289 Y16.106 E1.6168
G1 X186.351 Y16.184 E1.6208
G1 X186.985 Y17.037 E1.6626
G1 X187.041 Y17.119 E1.6665
G1 X187.624 Y18.020 E1.7088
G1 X187.675 Y18.105 E1.7127
G1 X188.198 Y19.042 E1.7550
G1 X188.244 Y19.131 E1.7589
G1 X188.704 Y20.101 E1.8012
G1 X188.744 Y20.193 E1.8051
G1 X189.143 Y21.200 E1.8478
G1 X189.177 Y21.294 E1.8517
G1 X189.503 Y22.305 E1.8936
G1 X189.531 Y22.401 E1.8975
G1 X189.793 Y23.442 E1.9398
G1 X189.814 Y23.540 E1.9437
G1 X190.009 Y24.606 E1.9864
G1 X190.024 Y24.704 E1.9903
G1 X190.146 Y25.760 E2.0322
G1 X190.155 Y25.859 E2.0361
G1 X190.209 Y26.931 E2.0783
G1 X190.211 Y27.031 E2.0823
G1 X190.194 Y28.115 E2.1250
G1 X190.189 Y28.214 E2.1289
G1 X190.103 Y29.273 E2.1708
G1 X190.092 Y29.372 E2.1747
G1 X189.936 Y30.434 E2.2169
G1 X189.918 Y30.533 E2.2209
G1 X189.690 Y31.592 E2.2636
G1 X189.666 Y31.689 E2.2675
G1 X189.375 Y32.711 E2.3093
G1 X189.345 Y32.806 E2.3132
G1 X188.985 Y33.816 E2.3555
G1 X188.948 Y33.909 E2.3594
G1 X188.523 Y34.894 E2.4017
G1 X188.480 Y34.985 E2.4056
G1 X187.991 Y35.940 E2.4479
G1 X187.943 Y36.027 E2.4518
G1 X187.392 Y36.948 E2.4941
G1 X187.338 Y37.032 E2.4980
G1 X186.955 Y37.587 E2.5246
G1 X184.037 Y45.010 E2.8387
G1 X184.001 Y45.093 E2.8423
G1 X183.724 Y45.692 E2.8683
G1 X183.638 Y45.851 E2.8754
G1 X183.269 Y46.452 E2.9031
G1 X183.165 Y46.600 E2.9102
G1 X182.727 Y47.153 E2.9380
G1 X182.607 Y47.287 E2.9451
G1 X182.106 Y47.784 E2.9729
G1 X181.971 Y47.904 E2.9800
G1 X181.416 Y48.339 E3.0078
G1 X181.267 Y48.441 E3.0149
G1 X180.664 Y48.808 E3.0427
G1 X180.505 Y48.892 E3.0498
G1 X179.863 Y49.185 E3.0776
G1 X179.694 Y49.250 E3.0847
G1 X179.023 Y49.465 E3.1125
G1 X178.848 Y49.509 E3.1196
G1 X178.155 Y49.643 E3.1474
G1 X177.977 Y49.667 E3.1545
G1 X177.273 Y49.719 E3.1823
G1 X177.092 Y49.721 E3.1894
G1 X176.388 Y49.689 E3.2171
G1 X176.208 Y49.671 E3.2243
G1 X175.512 Y49.556 E3.2520
G1 X175.336 Y49.516 E3.2591
G1 X174.659 Y49.320 E3.2869
G1 X174.488 Y49.260 E3.2940
G1 X173.839 Y48.985 E3.3218
G1 X173.677 Y48.905 E3.3289
G1 X173.103 Y48.578 E3.3549
G1 X173.026 Y48.531 E3.3585
G1 X166.396 Y44.214 E3.6701
G1 X165.771 Y43.991 E3.6962
G1 X165.678 Y43.955 E3.7001
G1 X164.693 Y43.529 E3.7424
G1 X164.603 Y43.486 E3.7463
G1 X163.647 Y42.997 E3.7886
G1 X163.560 Y42.949 E3.7925
G1 X162.639 Y42.398 E3.8348
G1 X162.555 Y42.344 E3.8387
G1 X161.672 Y41.735 E3.8810
G1 X161.592 Y41.675 E3.8849
G1 X160.750 Y41.009 E3.9272
G1 X160.674 Y40.945 E3.9311
G1 X159.886 Y40.232 E3.9730
G1 X159.815 Y40.163 E3.9768
G1 X159.060 Y39.387 E4.0195
G1 X158.992 Y39.312 E4.0235
G1 X158.297 Y38.494 E4.0658
G1 X158.235 Y38.416 E4.0697
G1 X157.594 Y37.555 E4.1120
G1 X157.537 Y37.472 E4.1159
G1 X156.955 Y36.571 E4.1581
G1 X156.904 Y36.486 E4.1621
G1 X156.381 Y35.548 E4.2043
G1 X156.336 Y35.460 E4.2083
G1 X155.875 Y34.490 E4.2505
G1 X155.836 Y34.399 E4.2545
G1 X155.444 Y33.411 E4.2963
G1 X155.411 Y33.318 E4.3002
G1 X155.077 Y32.287 E4.3429
G1 X155.050 Y32.190 E4.3468
G1 X154.788 Y31.149 E4.3891
G1 X154.767 Y31.051 E4.3930
G1 X154.573 Y29.996 E4.4353
G1 X154.559 Y29.897 E4.4393
G1 X154.435 Y28.831 E4.4815
G1 X154.426 Y28.731 E4.4854
G1 X154.373 Y27.660 E4.5277
G1 X154.371 Y27.560 E4.5316
G1 X154.387 Y26.487 E4.5739
G1 X154.392 Y26.387 E4.5778
G1 X154.478 Y25.328 E4.6197
G1 X154.489 Y25.230 E4.6236
G1 X154.646 Y24.158 E4.6662
G92 E0.0000
G1 E-0.9000 F2000
G1 X164.906 Y22.079 F7200
G1 E0.0000 F2000
G92 E0.0000
G1 X166.820 Y22.079 E0.0754 F188
G1 X166.820 Y20.115 E0.1527
G1 X166.102 Y20.746 E0.1903
G1 X165.636 Y21.219 E0.2165
G1 X164.906 Y22.079 E0.2609
G92 E0.0000
G1 E-0.9000 F2000
G1 X169.760 Y25.019 F7200
G1 E0.0000 F2000
G92 E0.0000
G1 X169.760 Y30.079 E0.1993 F188
G1 X174.820 Y30.079 E0.3986
G1 X174.820 Y25.019 E0.5978
G1 X169.760 Y25.019 E0.7971
G92 E0.0000
G1 E-0.9000 F2000
G1 X177.760 Y33.019 F7200
G1 E0.0000 F2000
G92 E0.0000
G1 X177.760 Y34.482 E0.0576 F188
G1 X178.481 Y33.848 E0.0954
G1 X179.297 Y33.019 E0.1413
G1 X177.760 Y33.019 E0.2018
G92 E0.0000
G1 E-0.9000 F2000
G1 X175.415 Y29.549 F7200
G1 E0.0000 F2000
G92 E0.0000
G1 X189.465 Y29.549 E0.5533 F188
G1 X189.502 Y29.295 E0.5634
G1 X189.511 Y29.215 E0.5666
G1 X189.595 Y28.176 E0.6076
G1 X189.599 Y28.095 E0.6108
G1 X189.607 Y27.549 E0.6324
G1 X175.415 Y27.549 E1.1913
G92 E0.0000
G1 E-0.9000 F2000
G1 X167.415 Y21.549 F7200
G1 E0.0000 F2000
G92 E0.0000
G1 X188.634 Y21.549 E0.8357 F188
G1 X188.614 Y21.486 E0.8382
G1 X188.586 Y21.410 E0.8414
G1 X188.195 Y20.422 E0.8833
G1 X188.163 Y20.348 E0.8865
G1 X187.783 Y19.549 E0.9213
G1 X167.415 Y19.549 E1.7235
G92 E0.0000
G1 E-0.9000 F2000
G1 X165.082 Y11.549 F7200
G1 E0.0000 F2000
G92 E0.0000
G1 X179.505 Y11.549 E0.5680 F188
G1 X179.640 Y11.607 E0.5738
G1 X179.712 Y11.641 E0.5769
G1 X180.650 Y12.121 E0.6184
G1 X180.720 Y12.160 E0.6216
G1 X181.625 Y12.700 E0.6631
G1 X181.692 Y12.743 E0.6663
G1 X182.560 Y13.342 E0.7078
G1 X182.624 Y13.390 E0.7109
G1 X182.825 Y13.549 E0.7210
G1 X161.757 Y13.549 E1.5507
G1 X161.538 Y13.711 E1.5615
G1 X161.475 Y13.761 E1.5646
G1 X160.664 Y14.451 E1.6066
G1 X160.605 Y14.504 E1.6097
G1 X159.856 Y15.231 E1.6508
G1 X159.801 Y15.288 E1.6539
G1 X159.566 Y15.549 E1.6678
G1 X185.022 Y15.549 E2.6703
G1 X185.086 Y15.614 E2.6739
G1 X185.140 Y15.674 E2.6771
G1 X185.829 Y16.484 E2.7190
G1 X185.879 Y16.547 E2.7221
G1 X186.501 Y17.384 E2.7632
G1 X186.547 Y17.450 E2.7664
G1 X186.611 Y17.549 E2.7710
G1 X157.976 Y17.549 E3.8987
G1 X157.741 Y17.889 E3.9150
G1 X157.698 Y17.957 E3.9182
G1 X157.157 Y18.861 E3.9597
G1 X157.118 Y18.931 E3.9628
G1 X156.801 Y19.549 E3.9901
G1 X166.563 Y19.549 E4.3746
G1 X165.693 Y20.313 E4.4202
G1 X165.197 Y20.817 E4.4481
G1 X164.576 Y21.549 E4.4859
G1 X155.954 Y21.549 E4.8254
G1 X155.802 Y21.976 E4.8433
G1 X155.777 Y22.053 E4.8464
G1 X155.489 Y23.066 E4.8879
G1 X155.469 Y23.144 E4.8911
G1 X155.382 Y23.549 E4.9074
G1 X189.206 Y23.549 E6.2395
G1 X189.213 Y23.578 E6.2407
G1 X189.231 Y23.657 E6.2439
G1 X189.422 Y24.703 E6.2858
G1 X189.434 Y24.783 E6.2889
G1 X189.523 Y25.549 E6.3193
G1 X175.415 Y25.549 E6.8749
G1 X175.415 Y24.424 E6.9192
G1 X169.165 Y24.424 E7.1653
G1 X169.165 Y25.549 E7.2097
G1 X155.057 Y25.549 E7.7653
G1 X154.986 Y26.425 E7.7999
G1 X154.982 Y26.506 E7.8031
G1 X154.966 Y27.549 E7.8442
G1 X169.165 Y27.549 E8.4033
G1 X169.165 Y29.549 E8.4821
G1 X155.117 Y29.549 E9.0353
G1 X155.148 Y29.818 E9.0460
G1 X155.160 Y29.898 E9.0492
G1 X155.350 Y30.935 E9.0907
G1 X155.367 Y31.013 E9.0939
G1 X155.502 Y31.549 E9.1156
G1 X189.087 Y31.549 E10.4383
G1 X188.806 Y32.539 E10.4789
G1 X188.781 Y32.615 E10.4820
G1 X188.449 Y33.549 E10.5210
G1 X179.611 Y33.549 E10.8691
G1 X180.717 Y32.424 E10.9313
G1 X177.165 Y32.424 E11.0712
G1 X177.165 Y33.549 E11.1155
G1 X156.139 Y33.549 E11.9435
G1 X156.385 Y34.170 E11.9699
G1 X156.417 Y34.244 E11.9730
G1 X156.869 Y35.196 E12.0145
G1 X156.906 Y35.267 E12.0177
G1 X157.062 Y35.549 E12.0304
G1 X177.165 Y35.549 E12.8221
G1 X177.165 Y35.796 E12.8318
G1 X177.447 Y35.549 E12.8466
G1 X187.523 Y35.549 E13.2434
G1 X187.466 Y35.660 E13.2483
G1 X187.427 Y35.730 E13.2515
G1 X186.887 Y36.634 E13.2930
G1 X186.843 Y36.703 E13.2962
G1 X186.427 Y37.305 E13.3250
G1 X186.331 Y37.549 E13.3353
G1 X158.331 Y37.549 E14.4380
G1 X158.706 Y38.053 E14.4628
G1 X158.756 Y38.116 E14.4659
G1 X159.439 Y38.919 E14.5075
G1 X159.494 Y38.979 E14.5107
G1 X160.047 Y39.549 E14.5419
G1 X185.545 Y39.549 E15.5461
G1 X184.758 Y41.549 E15.6307
G1 X162.450 Y41.549 E16.5093
G1 X162.885 Y41.849 E16.5302
G1 X162.952 Y41.893 E16.5333
G1 X163.857 Y42.433 E16.5748
G1 X163.927 Y42.472 E16.5780
G1 X164.865 Y42.952 E16.6195
G1 X164.938 Y42.987 E16.6227
G1 X165.905 Y43.405 E16.6641
G1 X165.980 Y43.434 E16.6673
G1 X166.301 Y43.549 E16.6807
G1 X183.972 Y43.549 E17.3767
G1 X183.486 Y44.784 E17.4290
G1 X183.458 Y44.851 E17.4318
G1 X183.191 Y45.427 E17.4568
G1 X183.126 Y45.549 E17.4623
G1 X169.536 Y45.549 E17.9975
G1 X172.607 Y47.549 E18.1418
G1 X181.460 Y47.549 E18.4905
G92 E0.0000
G1 E-0.9000 F2000
; layer 2, Z = 0.588
M106 S255
; tool H0.194 W0.350
G1 Z0.588 F1000
G1 X178.141 Y33.914 F7200
G1 E0.0000 F2000
G92 E0.0000
G1 X185.639 Y41.413 E0.1031 F2250
G1 X185.779 Y41.058 E0.1068
G1 X178.401 Y33.680 E0.2083
G92 E0.0000
G1 E-0.9000 F2000
G1 X174.645 Y25.964 F7200
G1 E0.0000 F2000
G92 E0.0000
G1 X186.896 Y38.215 E0.1685 F2250
G1 X186.757 Y38.571 E0.1722
G1 X174.645 Y26.459 E0.3388
G1 X174.645 Y26.954 E0.3436
G1 X186.617 Y38.926 E0.5082
G1 X186.477 Y39.281 E0.5119
G1 X174.645 Y27.449 E0.6746
