; G-Code generated by Simplify3D(R) Version 4.1.2
; Jun 15, 2022 at 4:05:18 PM
; Settings Summary
;   processName,Process1
;   applyToModels,Periscope Stabalizer
;   profileName,LulzBot TAZ 5 (modified)
;   profileVersion,2021-08-27 09:31:58
;   baseProfile,
;   printMaterial,PETG
;   printQuality,Medium
;   printExtruders,
;   extruderName,Primary Extruder
;   extruderToolheadNumber,0
;   extruderDiameter,0.35
;   extruderAutoWidth,0
;   extruderWidth,0.4
;   extrusionMultiplier,1.01
;   extruderUseRetract,1
;   extruderRetractionDistance,0.9
;   extruderExtraRestartDistance,0
;   extruderRetractionZLift,0
;   extruderRetractionSpeed,2000
;   extruderUseCoasting,0
;   extruderCoastingDistance,0.2
;   extruderUseWipe,0
;   extruderWipeDistance,5
;   primaryExtruder,0
;   layerHeight,0.25
;   topSolidLayers,250
;   bottomSolidLayers,9
;   perimeterOutlines,5
;   printPerimetersInsideOut,1
;   startPointOption,2
;   startPointOriginX,0
;   startPointOriginY,0
;   sequentialIslands,0
;   spiralVaseMode,0
;   firstLayerHeightPercentage,90
;   firstLayerWidthPercentage,100
;   firstLayerUnderspeed,0.25
;   useRaft,1
;   raftExtruder,0
;   raftTopLayers,2
;   raftBaseLayers,1
;   raftOffset,3
;   raftSeparationDistance,0.25
;   raftTopInfill,100
;   aboveRaftSpeedMultiplier,0.3
;   useSkirt,0
;   skirtExtruder,0
;   skirtLayers,1
;   skirtOutlines,5
;   skirtOffset,2.05
;   usePrimePillar,0
;   primePillarExtruder,999
;   primePillarWidth,12
;   primePillarLocation,7
;   primePillarSpeedMultiplier,1
;   useOozeShield,0
;   oozeShieldExtruder,999
;   oozeShieldOffset,2
;   oozeShieldOutlines,1
;   oozeShieldSidewallShape,1
;   oozeShieldSidewallAngle,30
;   oozeShieldSpeedMultiplier,1
;   infillExtruder,0
;   internalInfillPattern,Full Honeycomb
;   externalInfillPattern,Rectilinear
;   infillPercentage,82
;   outlineOverlapPercentage,15
;   infillExtrusionWidthPercentage,203
;   minInfillLength,5
;   infillLayerInterval,1
;   internalInfillAngles,0,120,-120
;   overlapInternalInfillAngles,0
;   externalInfillAngles,45,-45
;   generateSupport,1
;   supportExtruder,0
;   supportInfillPercentage,20
;   supportExtraInflation,0.2
;   supportBaseLayers,1
;   denseSupportExtruder,0
;   denseSupportLayers,0
;   denseSupportInfillPercentage,70
;   supportLayerInterval,1
;   supportHorizontalPartOffset,0.4
;   supportUpperSeparationLayers,1
;   supportLowerSeparationLayers,1
;   supportType,0
;   supportGridSpacing,4
;   maxOverhangAngle,20
;   supportAngles,0
;   temperatureName,Primary Extruder,Heated Bed
;   temperatureNumber,0,1
;   temperatureSetpointCount,1,1
;   temperatureSetpointLayers,1,1
;   temperatureSetpointTemperatures,230,75
;   temperatureStabilizeAtStartup,1,1
;   temperatureHeatedBed,0,1
;   fanLayers,1,2
;   fanSpeeds,50,100
;   blipFanToFullPower,1
;   adjustSpeedForCooling,1
;   minSpeedLayerTime,15
;   minCoolingSpeedSlowdown,20
;   increaseFanForCooling,0
;   minFanLayerTime,45
;   maxCoolingFanSpeed,100
;   increaseFanForBridging,0
;   bridgingFanSpeed,100
;   use5D,1
;   relativeEdistances,0
;   allowEaxisZeroing,1
;   independentExtruderAxes,0
;   includeM10123,0
;   stickySupport,1
;   applyToolheadOffsets,0
;   gcodeXoffset,0
;   gcodeYoffset,0
;   gcodeZoffset,0
;   overrideMachineDefinition,1
;   machineTypeOverride,0
;   strokeXoverride,298
;   strokeYoverride,275
;   strokeZoverride,250
;   originOffsetXoverride,0
;   originOffsetYoverride,0
;   originOffsetZoverride,0
;   homeXdirOverride,-1
;   homeYdirOverride,-1
;   homeZdirOverride,-1
;   flipXoverride,1
;   flipYoverride,-1
;   flipZoverride,1
;   toolheadOffsets,0,0|0,0|0,0|0,0|0,0|0,0
;   overrideFirmwareConfiguration,1
;   firmwareTypeOverride,RepRap (Marlin/Repetier/Sprinter)
;   GPXconfigOverride,r2
;   baudRateOverride,115200
;   overridePrinterModels,1
;   printerModelsOverride,LulzBot_TAZ3.stl
;   startingGcode,G28 ; home all axes
;   layerChangeGcode,
;   retractionGcode,
;   toolChangeGcode,
;   endingGcode,M104 S0 ; turn off extruder,M140 S0 ; turn off bed,G28 X0 ; home X axis,M84 ; disable motors
;   exportFileFormat,gcode
;   celebration,0
;   celebrationSong,Random Song
;   postProcessing,
;   defaultSpeed,3000
;   outlineUnderspeed,0.5
;   solidInfillUnderspeed,0.8
;   supportUnderspeed,0.8
;   rapidXYspeed,7200
;   rapidZspeed,1000
;   minBridgingArea,50
;   bridgingExtraInflation,0
;   bridgingExtrusionMultiplier,1
;   bridgingSpeedMultiplier,1
;   useFixedBridgingAngle,0
;   fixedBridgingAngle,0
;   applyBridgingToPerimeters,0
;   filamentDiameters,3|3|3|3|3|3
;   filamentPricesPerKg,46|46|46|46|46|46
;   filamentDensities,1.25|1.25|1.25|1.25|1.25|1.25
;   useMinPrintHeight,0
;   minPrintHeight,0
;   useMaxPrintHeight,0
;   maxPrintHeight,0
;   useDiaphragm,0
;   diaphragmLayerInterval,20
;   robustSlicing,1
;   mergeAllIntoSolid,0
;   onlyRetractWhenCrossingOutline,1
;   retractBetweenLayers,1
;   useRetractionMinTravel,0
;   retractionMinTravel,3
;   retractWhileWiping,0
;   onlyWipeOutlines,1
;   avoidCrossingOutline,0
;   maxMovementDetourFactor,3
;   toolChangeRetractionDistance,12
;   toolChangeExtraRestartDistance,-0.5
;   toolChangeRetractionSpeed,600
;   externalThinWallType,0
;   internalThinWallType,2
;   thinWallAllowedOverlapPercentage,10
;   singleExtrusionMinLength,1
;   singleExtrusionMinPrintingWidthPercentage,50
;   singleExtrusionMaxPrintingWidthPercentage,200
;   singleExtrusionEndpointExtension,0.2
;   horizontalSizeCompensation,0
G90
M82
M106 S255
G4 P500
M106 S128
M140 S75
M190 S75
M104 S230 T0
M109 S230 T0
G28 ; home all axes
; process Process1
; layer 1, Z = 0.394
T0
G92 E0.0000
G1 E-0.9000 F2000
; feature raft
; tool H0.394 W0.700
G1 Z0.394 F1000
G1 X137.658 Y34.517 F7200
G1 E0.0000 F2000
G92 E0.0000
G1 X137.683 Y34.423 E0.0038 F188
G1 X138.033 Y33.290 E0.0505
G1 X138.065 Y33.198 E0.0544
G1 X138.502 Y32.082 E0.1015
G1 X138.551 Y31.971 E0.1063
G1 X139.337 Y30.403 E0.1754
G1 X139.396 Y30.297 E0.1802
G1 X140.028 Y29.279 E0.2274
G1 X140.083 Y29.199 E0.2312
G1 X140.781 Y28.240 E0.2779
G1 X140.841 Y28.163 E0.2817
G1 X141.615 Y27.249 E0.3289
G1 X141.697 Y27.160 E0.3337
G1 X142.948 Y25.930 E0.4028
G1 X143.039 Y25.849 E0.4076
G1 X143.952 Y25.102 E0.4540
G1 X144.010 Y25.058 E0.4569
G1 X144.523 Y24.683 E0.4819
G1 X144.604 Y24.629 E0.4858
G1 X146.083 Y23.708 E0.5544
G1 X146.188 Y23.649 E0.5591
G1 X147.259 Y23.111 E0.6063
G1 X147.347 Y23.070 E0.6101
G1 X148.999 Y22.387 E0.6806
G1 X149.520 Y22.434 E0.7011
G1 X149.520 Y19.258 E0.8262
G1 X151.072 Y17.706 E0.9127
G1 X158.107 Y17.706 E1.1898
G1 X158.590 Y18.188 E1.2166
G1 X159.072 Y17.706 E1.2435
G1 X166.107 Y17.706 E1.5206
G1 X167.660 Y19.258 E1.6070
G1 X167.660 Y25.706 E1.8609
G1 X170.107 Y25.706 E1.9573
G1 X171.660 Y27.258 E2.0438
G1 X171.660 Y37.948 E2.4648
G1 X172.167 Y38.390 E2.4913
G1 X172.067 Y40.266 E2.5653
G1 X172.062 Y40.339 E2.5682
G1 X171.934 Y41.515 E2.6148
G1 X171.919 Y41.612 E2.6186
G1 X171.703 Y42.786 E2.6657
G1 X171.682 Y42.882 E2.6695
G1 X171.379 Y44.038 E2.7166
G1 X171.351 Y44.131 E2.7204
G1 X170.968 Y45.250 E2.7670
G1 X170.942 Y45.319 E2.7699
G1 X170.708 Y45.895 E2.7944
G1 X170.679 Y45.962 E2.7973
G1 X170.175 Y47.032 E2.8438
G1 X170.130 Y47.119 E2.8477
G1 X169.542 Y48.159 E2.8947
G1 X169.491 Y48.242 E2.8986
G1 X168.835 Y49.226 E2.9452
G1 X168.793 Y49.286 E2.9481
G1 X168.420 Y49.784 E2.9726
G1 X168.374 Y49.841 E2.9754
G1 X167.625 Y50.733 E3.0213
G1 X167.577 Y50.787 E3.0242
G1 X167.147 Y51.245 E3.0489
G1 X167.095 Y51.297 E3.0518
G1 X166.239 Y52.113 E3.0984
G1 X166.166 Y52.178 E3.1022
G1 X165.243 Y52.936 E3.1493
G1 X165.165 Y52.996 E3.1531
G1 X164.188 Y53.684 E3.2002
G1 X164.107 Y53.737 E3.2040
G1 X163.082 Y54.352 E3.2511
G1 X162.996 Y54.398 E3.2549
G1 X161.934 Y54.933 E3.3017
G1 X161.846 Y54.974 E3.3056
G1 X160.181 Y55.664 E3.3766
G1 X158.879 Y55.545 E3.4280
G1 X155.660 Y53.462 E3.5791
G1 X155.660 Y54.293 E3.6118
G1 X154.107 Y55.846 E3.6982
G1 X143.072 Y55.846 E4.1329
G1 X141.520 Y54.293 E4.2193
G1 X141.520 Y51.846 E4.3157
G1 X139.072 Y51.846 E4.4121
G1 X137.520 Y50.293 E4.4986
G1 X137.520 Y41.451 E4.8468
G1 X137.108 Y40.705 E4.8803
G1 X137.081 Y38.351 E4.9730
G1 X137.085 Y38.230 E4.9778
G1 X137.181 Y37.036 E5.0250
G1 X137.192 Y36.940 E5.0288
G1 X137.373 Y35.768 E5.0755
G1 X137.392 Y35.672 E5.0793
G1 X137.658 Y34.517 E5.1261
G92 E0.0000
G1 E-0.9000 F2000
G1 X149.728 Y38.002 F7200
G1 E0.0000 F2000
G92 E0.0000
G1 X149.692 Y38.189 E0.0075 F188
G1 X149.628 Y38.772 E0.0306
G1 X149.622 Y38.962 E0.0381
G1 X149.649 Y39.548 E0.0612
G1 X149.672 Y39.737 E0.0687
G1 X149.784 Y40.278 E0.0904
G1 X150.409 Y42.251 E0.1719
G1 X148.646 Y44.462 E0.2833
G1 X147.660 Y44.380 E0.3223
G1 X147.660 Y45.706 E0.3745
G1 X151.871 Y45.706 E0.5404
G1 X152.900 Y44.034 E0.6177
G1 X154.988 Y43.976 E0.6999
G1 X155.501 Y43.907 E0.7203
G1 X156.004 Y43.786 E0.7407
G1 X156.492 Y43.613 E0.7611
G1 X156.959 Y43.390 E0.7815
G1 X157.401 Y43.119 E0.8019
G1 X157.839 Y42.783 E0.8236
G1 X157.981 Y42.656 E0.8311
G1 X158.385 Y42.231 E0.8542
G1 X158.505 Y42.084 E0.8617
G1 X158.819 Y41.629 E0.8835
G1 X159.067 Y41.175 E0.9039
G1 X159.266 Y40.697 E0.9243
G1 X159.425 Y40.168 E0.9460
G1 X159.465 Y39.982 E0.9535
G1 X159.539 Y39.435 E0.9752
G1 X159.555 Y38.917 E0.9956
G1 X159.517 Y38.401 E1.0160
G1 X159.203 Y36.662 E1.0856
G1 X158.113 Y35.523 E1.1477
G1 X157.701 Y35.155 E1.1694
G1 X157.254 Y34.832 E1.1912
G1 X157.091 Y34.733 E1.1987
G1 X156.599 Y34.483 E1.2204
G1 X156.115 Y34.299 E1.2408
G1 X155.581 Y34.157 E1.2626
G1 X155.360 Y34.116 E1.2714
G1 X155.138 Y34.087 E1.2802
G1 X154.586 Y34.059 E1.3020
G1 X154.034 Y34.088 E1.3238
G1 X153.846 Y34.113 E1.3312
G1 X153.272 Y34.235 E1.3543
G1 X153.090 Y34.289 E1.3618
G1 X152.574 Y34.486 E1.3836
G1 X152.113 Y34.721 E1.4040
G1 X151.678 Y35.002 E1.4244
G1 X151.248 Y35.348 E1.4461
G1 X151.110 Y35.479 E1.4536
G1 X150.716 Y35.914 E1.4767
G1 X150.600 Y36.064 E1.4842
G1 X150.298 Y36.527 E1.5059
G1 X150.061 Y36.987 E1.5263
G1 X149.873 Y37.470 E1.5467
G1 X149.728 Y38.002 E1.5685
G92 E0.0000
G1 E-0.9000 F2000
G1 X153.142 Y44.776 F7200
G1 E0.0000 F2000
G92 E0.0000
G1 X170.501 Y44.776 E0.6837 F188
G1 X170.784 Y43.949 E0.7181
G1 X170.806 Y43.876 E0.7211
G1 X171.094 Y42.776 E0.7659
G1 X158.688 Y42.776 E1.2544
G1 X158.832 Y42.624 E1.2627
G1 X158.981 Y42.441 E1.2720
G1 X159.326 Y41.941 E1.2959
G1 X159.604 Y41.432 E1.3187
G1 X159.827 Y40.897 E1.3416
G1 X159.864 Y40.776 E1.3466
G1 X171.416 Y40.776 E1.8015
G1 X171.469 Y40.283 E1.8210
G1 X171.474 Y40.227 E1.8232
G1 X171.551 Y38.776 E1.8805
G1 X160.141 Y38.776 E2.3298
G1 X160.108 Y38.326 E2.3476
G1 X159.828 Y36.776 E2.4096
G1 X171.065 Y36.776 E2.8521
G1 X171.065 Y34.776 E2.9309
G1 X158.170 Y34.776 E3.4387
G92 E0.0000
G1 E-0.9000 F2000
G1 X150.843 Y18.776 F7200
G1 E0.0000 F2000
G92 E0.0000
G1 X158.336 Y18.776 E0.2951 F188
G1 X158.590 Y19.029 E0.3092
G1 X158.843 Y18.776 E0.3233
G1 X166.336 Y18.776 E0.6184
G1 X167.065 Y19.504 E0.6590
G1 X167.065 Y20.776 E0.7091
G1 X150.115 Y20.776 E1.3766
G1 X150.115 Y22.776 E1.4554
G1 X167.065 Y22.776 E2.1229
G1 X167.065 Y24.776 E2.2017
G1 X145.494 Y24.776 E3.0512
G1 X144.927 Y25.128 E3.0775
G1 X144.865 Y25.171 E3.0805
G1 X144.367 Y25.534 E3.1047
G1 X144.323 Y25.568 E3.1069
G1 X143.426 Y26.302 E3.1526
G1 X143.356 Y26.364 E3.1563
G1 X142.937 Y26.776 E3.1794
G1 X170.336 Y26.776 E4.2584
G1 X171.065 Y27.504 E4.2990
G1 X171.065 Y28.776 E4.3491
G1 X141.127 Y28.776 E5.5281
G1 X140.570 Y29.540 E5.5653
G1 X140.528 Y29.603 E5.5683
G1 X139.909 Y30.599 E5.6145
G1 X139.863 Y30.681 E5.6182
G1 X139.815 Y30.776 E5.6224
G1 X171.065 Y30.776 E6.8531
G1 X171.065 Y32.776 E6.9318
G1 X138.869 Y32.776 E8.1998
G1 X138.623 Y33.404 E8.2264
G1 X138.598 Y33.476 E8.2294
G1 X138.255 Y34.588 E8.2752
G1 X138.235 Y34.661 E8.2782
G1 X138.209 Y34.776 E8.2828
G1 X151.011 Y34.776 E8.7870
G1 X150.856 Y34.900 E8.7948
G1 X150.684 Y35.062 E8.8041
G1 X150.259 Y35.532 E8.8290
G1 X150.115 Y35.719 E8.8383
G1 X149.783 Y36.227 E8.8622
G1 X149.517 Y36.742 E8.8851
G1 X149.504 Y36.776 E8.8865
G1 X137.820 Y36.776 E9.3467
G1 X137.782 Y37.019 E9.3564
G1 X137.773 Y37.095 E9.3594
G1 X137.680 Y38.264 E9.4056
G1 X137.676 Y38.358 E9.4093
G1 X137.681 Y38.776 E9.4257
G1 X149.032 Y38.776 E9.8727
G1 X149.026 Y38.966 E9.8803
G1 X149.056 Y39.599 E9.9052
G1 X149.085 Y39.834 E9.9145
G1 X149.207 Y40.428 E9.9384
G1 X149.317 Y40.776 E9.9528
G1 X137.827 Y40.776 E10.4053
G1 X138.115 Y41.298 E10.4288
G1 X138.115 Y42.776 E10.4870
G1 X149.230 Y42.776 E10.9248
G1 X148.379 Y43.843 E10.9785
G1 X147.065 Y43.734 E11.0305
G1 X147.065 Y44.776 E11.0715
G1 X138.115 Y44.776 E11.4240
G1 X138.115 Y46.776 E11.5027
G1 X169.638 Y46.776 E12.7442
G1 X169.606 Y46.836 E12.7469
G1 X169.030 Y47.856 E12.7930
G1 X168.990 Y47.922 E12.7960
G1 X168.420 Y48.776 E12.8365
G1 X138.115 Y48.776 E14.0300
G1 X138.115 Y50.047 E14.0801
G1 X138.843 Y50.776 E14.1207
G1 X166.772 Y50.776 E15.2206
G1 X166.719 Y50.832 E15.2236
G1 X166.679 Y50.872 E15.2258
G1 X165.837 Y51.675 E15.2716
G1 X165.780 Y51.725 E15.2746
G1 X164.874 Y52.470 E15.3208
G1 X164.813 Y52.516 E15.3238
G1 X164.444 Y52.776 E15.3416
G1 X155.694 Y52.776 E15.6862
G1 X155.065 Y52.369 E15.7157
G1 X155.065 Y52.776 E15.7318
G1 X142.115 Y52.776 E16.2418
G1 X142.115 Y54.047 E16.2918
G1 X142.843 Y54.776 E16.3324
G1 X154.336 Y54.776 E16.7850
G92 E0.0000
G1 E-0.9000 F2000
G1 X158.785 Y54.776 F7200
G1 E0.0000 F2000
G92 E0.0000
G1 X160.770 Y54.776 E0.0782 F188
G92 E0.0000
G1 E-0.9000 F2000
; layer 2, Z = 0.588
M106 S255
; tool H0.194 W0.350
G1 Z0.588 F1000
G1 X148.000 Y45.531 F7200
G1 E0.0000 F2000
G92 E0.0000
G1 X157.021 Y54.551 E0.1241 F2250
G1 X158.423 Y55.459 E0.1403
G1 X148.495 Y45.531 E0.2768
G1 X148.990 Y45.531 E0.2816
G1 X159.211 Y55.751 E0.4222
G1 X159.755 Y55.801 E0.4275
G1 X149.485 Y45.531 E0.5687
G1 X149.980 Y45.531 E0.5736
G1 X160.267 Y55.817 E0.7150
G1 X160.617 Y55.672 E0.7187
G1 X150.475 Y45.531 E0.8582
G1 X150.970 Y45.531 E0.8630
G1 X160.967 Y55.527 E1.0005
G1 X161.317 Y55.382 E1.0041
G1 X151.465 Y45.531 E1.1396
G1 X151.774 Y45.531 E1.1426
G1 X151.845 Y45.415 E1.1439
G1 X161.667 Y55.237 E1.2790
G1 X161.916 Y55.134 E1.2816
G1 X162.010 Y55.091 E1.2827
G1 X152.033 Y45.109 E1.4199
G1 X152.222 Y44.802 E1.4234
G1 X162.343 Y54.924 E1.5626
G1 X162.672 Y54.758 E1.5662
G1 X152.410 Y44.496 E1.7073
G1 X152.599 Y44.189 E1.7108
G1 X163.001 Y54.592 E1.8539
G1 X163.078 Y54.553 E1.8547
G1 X163.169 Y54.503 E1.8557
G1 X163.318 Y54.414 E1.8574
G1 X152.787 Y43.883 E2.0022
G1 X152.800 Y43.862 E2.0025
G1 X153.249 Y43.849 E2.0069
G1 X163.628 Y54.228 E2.1496
G1 X163.937 Y54.043 E2.1531
G1 X153.730 Y43.836 E2.2935
G1 X154.212 Y43.822 E2.2981
G1 X164.245 Y53.856 E2.4361
G1 X164.286 Y53.829 E2.4366
G1 X164.537 Y53.652 E2.4396
G1 X154.693 Y43.809 E2.5749
G1 X154.974 Y43.801 E2.5777
G1 X155.156 Y43.777 E2.5795
G1 X164.827 Y53.448 E2.7125
G1 X165.117 Y53.243 E2.7159
G1 X155.582 Y43.708 E2.8470
G1 X155.954 Y43.618 E2.8508
G1 X155.978 Y43.609 E2.8510
G1 X165.402 Y53.032 E2.9806
G1 X165.673 Y52.809 E2.9840
G1 X156.344 Y43.480 E3.1123
G1 X156.425 Y43.451 E3.1132
G1 X156.686 Y43.327 E3.1160
G1 X165.945 Y52.586 E3.2433
G1 X166.217 Y52.363 E3.2467
G1 X157.009 Y43.154 E3.3734
G1 X157.302 Y42.975 E3.3767
G1 X157.314 Y42.965 E3.3769
G1 X166.477 Y52.128 E3.5029
G1 X166.731 Y51.887 E3.5063
G1 X157.594 Y42.750 E3.6319
G1 X157.727 Y42.649 E3.6335
G1 X157.859 Y42.531 E3.6353
G1 X157.864 Y42.525 E3.6353
G1 X166.984 Y51.645 E3.7608
G1 X167.218 Y51.422 E3.7639
G1 X167.237 Y51.403 E3.7642
G1 X158.105 Y42.271 E3.8897
G1 X158.254 Y42.116 E3.8918
G1 X158.339 Y42.010 E3.8932
G1 X167.478 Y51.149 E4.0188
G1 X167.706 Y50.905 E4.0221
G1 X167.717 Y50.893 E4.0222
G1 X158.544 Y41.720 E4.1484
G1 X158.669 Y41.537 E4.1505
G1 X158.735 Y41.416 E4.1519
G1 X167.944 Y50.625 E4.2785
G1 X168.170 Y50.356 E4.2819
G1 X158.910 Y41.096 E4.4093
G1 X159.056 Y40.747 E4.4130
G1 X168.396 Y50.087 E4.5414
G1 X168.510 Y49.952 E4.5431
G1 X168.558 Y49.891 E4.5439
G1 X168.617 Y49.813 E4.5448
G1 X159.180 Y40.376 E4.6746
G1 X159.255 Y40.124 E4.6772
G1 X159.285 Y39.986 E4.6785
G1 X168.829 Y49.530 E4.8098
G1 X168.934 Y49.389 E4.8115
G1 X168.979 Y49.325 E4.8123
G1 X169.035 Y49.242 E4.8132
G1 X159.346 Y39.553 E4.9465
